Numix-Light/16/status/indicator-keyboard-Uk-8.svg

<?xml version="1.0" encoding="UTF-8" standalone="no"?>
<svg
   xmlns:dc="http://purl.org/dc/elements/1.1/"
   xmlns:cc="http://creativecommons.org/ns#"
   xmlns:rdf="http://www.w3.org/1999/02/22-rdf-syntax-ns#"
   xmlns:svg="http://www.w3.org/2000/svg"
   xmlns="http://www.w3.org/2000/svg"
   xmlns:sodipodi="http://sodipodi.sourceforge.net/DTD/sodipodi-0.dtd"
   xmlns:inkscape="http://www.inkscape.org/namespaces/inkscape"
   viewBox="0 0 16 16"
   id="svg2"
   version="1.1"
   inkscape:version="0.91 r13725"
   sodipodi:docname="indicator-keyboard-Uk-8.svg">
  <metadata
     id="metadata14">
    <rdf:RDF>
      <cc:Work
         rdf:about="">
        <dc:format>image/svg+xml</dc:format>
        <dc:type
           rdf:resource="http://purl.org/dc/dcmitype/StillImage" />
      </cc:Work>
    </rdf:RDF>
  </metadata>
  <defs
     id="defs12" />
  <sodipodi:namedview
     pagecolor="#ffffff"
     bordercolor="#666666"
     borderopacity="1"
     objecttolerance="10"
     gridtolerance="10"
     guidetolerance="10"
     inkscape:pageopacity="0"
     inkscape:pageshadow="2"
     inkscape:window-width="640"
     inkscape:window-height="480"
     id="namedview10"
     showgrid="false"
     inkscape:zoom="14.75"
     inkscape:cx="8"
     inkscape:cy="8"
     inkscape:window-x="65"
     inkscape:window-y="24"
     inkscape:window-maximized="0"
     inkscape:current-layer="svg2" />
  <path
     style="fill:#353535;fill-opacity:1"
     d="M 1.5996094 0 C 0.71320937 2.9605947e-16 0 0.71320937 0 1.5996094 L 0 14.400391 C 2.9605947e-16 15.286791 0.71320937 16 1.5996094 16 L 14.400391 16 C 15.286791 16 16 15.286791 16 14.400391 L 16 1.5996094 C 16 0.71320937 15.286791 0 14.400391 0 L 1.5996094 0 z M 8.3457031 4.1113281 L 8.3457031 8.5390625 C 8.4957031 8.3950625 8.6636094 8.2309219 8.8496094 8.0449219 C 9.0356094 7.8589219 9.2222031 7.6705156 9.4082031 7.4785156 C 9.6002031 7.2865156 9.7792656 7.0999219 9.9472656 6.9199219 C 10.115265 6.7399219 10.258906 6.5813594 10.378906 6.4433594 L 11.082031 6.4433594 C 10.944031 6.5873594 10.787281 6.7496875 10.613281 6.9296875 C 10.439281 7.1096875 10.256453 7.2980937 10.064453 7.4960938 C 9.8784533 7.6880937 9.6918594 7.8765 9.5058594 8.0625 L 9.0019531 8.5664062 C 9.1879531 8.6924063 9.3876562 8.8547344 9.5976562 9.0527344 C 9.8136562 9.2507344 10.022563 9.4671719 10.226562 9.7011719 C 10.436562 9.9291721 10.6325 10.166109 10.8125 10.412109 C 10.9985 10.652109 11.153297 10.879703 11.279297 11.095703 L 10.585938 11.095703 C 10.441937 10.855703 10.277797 10.622531 10.091797 10.394531 C 9.911797 10.160531 9.719625 9.9403283 9.515625 9.7363281 C 9.317625 9.5323281 9.1161094 9.3476875 8.9121094 9.1796875 C 8.7141094 9.0116875 8.5257031 8.8698594 8.3457031 8.7558594 L 8.3457031 11.095703 L 7.7617188 11.095703 L 7.7617188 4.2207031 L 8.3457031 4.1113281 z M 1.6523438 4.859375 L 2.2636719 4.859375 L 2.2636719 8.7011719 C 2.2636719 9.0431719 2.3028594 9.34175 2.3808594 9.59375 C 2.4648594 9.83975 2.5786563 10.043078 2.7226562 10.205078 C 2.8666562 10.367078 3.0420938 10.486453 3.2460938 10.564453 C 3.4500938 10.642453 3.6776875 10.681641 3.9296875 10.681641 C 4.1816875 10.681641 4.4092812 10.642453 4.6132812 10.564453 C 4.8172812 10.486453 4.9907656 10.367078 5.1347656 10.205078 C 5.2787656 10.043078 5.39075 9.83975 5.46875 9.59375 C 5.55275 9.34175 5.59375 9.0431719 5.59375 8.7011719 L 5.59375 4.859375 L 6.2070312 4.859375 L 6.2070312 8.7832031 C 6.2070312 9.1252031 6.1640781 9.4460938 6.0800781 9.7460938 C 6.0020781 10.040094 5.8733594 10.297531 5.6933594 10.519531 C 5.5133594 10.741531 5.2764219 10.916969 4.9824219 11.042969 C 4.6944219 11.168969 4.3436875 11.230469 3.9296875 11.230469 C 3.5156875 11.230469 3.1611875 11.168969 2.8671875 11.042969 C 2.5791875 10.916969 2.3460156 10.741531 2.1660156 10.519531 C 1.9860156 10.297531 1.8535312 10.040094 1.7695312 9.7460938 C 1.6915312 9.4460938 1.6523437 9.1252031 1.6523438 8.7832031 L 1.6523438 4.859375 z M 13.083984 8.7539062 C 13.286784 8.7539062 13.461175 8.7852563 13.609375 8.8476562 C 13.757575 8.9061562 13.879056 8.9845313 13.972656 9.0820312 C 14.070156 9.1795312 14.140694 9.2912156 14.183594 9.4160156 C 14.230394 9.5408156 14.253906 9.6681812 14.253906 9.8007812 C 14.253906 9.9294812 14.234313 10.049003 14.195312 10.158203 C 14.156312 10.263503 14.105369 10.361472 14.042969 10.451172 C 13.980569 10.536972 13.910031 10.613388 13.832031 10.679688 C 13.754031 10.745988 13.677616 10.800856 13.603516 10.847656 C 13.876516 10.964656 14.068534 11.111609 14.177734 11.287109 C 14.290834 11.462609 14.347656 11.64875 14.347656 11.84375 C 14.347656 12.01145 14.316306 12.164288 14.253906 12.304688 C 14.195406 12.445088 14.111153 12.566569 14.001953 12.667969 C 13.892753 12.765469 13.759516 12.841884 13.603516 12.896484 C 13.447516 12.954984 13.275084 12.984375 13.083984 12.984375 C 12.892884 12.984375 12.7185 12.956944 12.5625 12.902344 C 12.4104 12.847744 12.279116 12.771328 12.166016 12.673828 C 12.056816 12.572428 11.970603 12.454866 11.908203 12.322266 C 11.849703 12.185766 11.820312 12.038806 11.820312 11.878906 C 11.820312 11.742406 11.839906 11.618966 11.878906 11.509766 C 11.917906 11.396666 11.96885 11.296737 12.03125 11.210938 C 12.09755 11.121237 12.172006 11.042863 12.253906 10.976562 C 12.339706 10.906363 12.427884 10.845622 12.521484 10.794922 C 12.283584 10.677922 12.122909 10.540759 12.037109 10.380859 C 11.951309 10.220959 11.908203 10.046575 11.908203 9.859375 C 11.908203 9.691675 11.937594 9.5407968 11.996094 9.4042969 C 12.054594 9.2677969 12.134928 9.1521937 12.236328 9.0585938 C 12.341628 8.9610938 12.465075 8.8866375 12.609375 8.8359375 C 12.753675 8.7813375 12.912384 8.7539062 13.083984 8.7539062 z M 13.083984 9.0820312 C 12.955284 9.0820312 12.841641 9.101625 12.744141 9.140625 C 12.646641 9.179625 12.564347 9.2344875 12.498047 9.3046875 C 12.435647 9.3709875 12.386662 9.4493625 12.351562 9.5390625 C 12.320362 9.6287624 12.306641 9.7208594 12.306641 9.8183594 C 12.306641 9.9275594 12.318397 10.027487 12.341797 10.117188 C 12.369097 10.206888 12.416128 10.289181 12.486328 10.363281 C 12.556528 10.433481 12.654497 10.5001 12.779297 10.5625 C 12.904097 10.621 13.068684 10.677822 13.271484 10.732422 C 13.450884 10.631022 13.591966 10.505622 13.697266 10.357422 C 13.802566 10.209222 13.855469 10.023081 13.855469 9.8007812 C 13.855469 9.7110812 13.839794 9.6248624 13.808594 9.5390625 C 13.781294 9.4532625 13.736228 9.3768469 13.673828 9.3105469 C 13.615328 9.2403469 13.538906 9.1854844 13.441406 9.1464844 C 13.343906 9.1035844 13.224384 9.0820312 13.083984 9.0820312 z M 12.849609 10.929688 C 12.650709 11.023287 12.495919 11.150647 12.386719 11.310547 C 12.277519 11.466547 12.224609 11.656606 12.224609 11.878906 C 12.224609 11.988106 12.242244 12.088041 12.277344 12.181641 C 12.312444 12.275241 12.363394 12.357534 12.433594 12.427734 C 12.507694 12.497934 12.597825 12.554756 12.703125 12.597656 C 12.812325 12.636656 12.939684 12.65625 13.083984 12.65625 C 13.228284 12.65625 13.353684 12.636656 13.458984 12.597656 C 13.568184 12.554756 13.656363 12.497934 13.726562 12.427734 C 13.800662 12.357534 13.855525 12.275241 13.890625 12.181641 C 13.925725 12.088041 13.943359 11.988106 13.943359 11.878906 C 13.943359 11.711206 13.91005 11.57405 13.84375 11.46875 C 13.78135 11.36345 13.697097 11.277238 13.591797 11.210938 C 13.490397 11.144638 13.374787 11.091734 13.242188 11.052734 C 13.113488 11.013734 12.982209 10.972587 12.849609 10.929688 z "
     id="path4" />
</svg>

<svg xmlns="http://www.w3.org/2000/svg" viewBox="0 0 16 16">
 <path d="m 1.6 0 c -0.886 0 -1.6 0.713 -1.6 1.6 l 0 12.801 c 0 0.886 0.713 1.6 1.6 1.6 l 12.801 0 c 0.886 0 1.6 -0.713 1.6 -1.6 l 0 -12.801 c 0 -0.886 -0.713 -1.6 -1.6 -1.6 l -12.801 0 z m 6.746 4.111 l 0 4.428 c 0.15 -0.144 0.318 -0.308 0.504 -0.494 c 0.186 -0.186 0.373 -0.374 0.559 -0.566 c 0.192 -0.192 0.371 -0.379 0.539 -0.559 c 0.168 -0.18 0.312 -0.339 0.432 -0.477 l 0.703 0 c -0.138 0.144 -0.295 0.306 -0.469 0.486 c -0.174 0.18 -0.357 0.368 -0.549 0.566 c -0.186 0.192 -0.373 0.38 -0.559 0.566 l -0.504 0.504 c 0.186 0.126 0.386 0.288 0.596 0.486 c 0.216 0.198 0.425 0.414 0.629 0.648 c 0.21 0.228 0.406 0.465 0.586 0.711 c 0.186 0.24 0.341 0.468 0.467 0.684 l -0.693 0 c -0.144 -0.24 -0.308 -0.473 -0.494 -0.701 c -0.18 -0.234 -0.372 -0.454 -0.576 -0.658 c -0.198 -0.204 -0.4 -0.389 -0.604 -0.557 c -0.198 -0.168 -0.386 -0.31 -0.566 -0.424 l 0 2.34 l -0.584 0 l 0 -6.875 l 0.584 -0.109 z m -6.693 0.748 l 0.611 0 l 0 3.842 c 0 0.342 0.039 0.641 0.117 0.893 c 0.084 0.246 0.198 0.449 0.342 0.611 c 0.144 0.162 0.319 0.281 0.523 0.359 c 0.204 0.078 0.432 0.117 0.684 0.117 c 0.252 0 0.48 -0.039 0.684 -0.117 c 0.204 -0.078 0.377 -0.197 0.521 -0.359 c 0.144 -0.162 0.256 -0.365 0.334 -0.611 c 0.084 -0.252 0.125 -0.551 0.125 -0.893 l 0 -3.842 l 0.613 0 l 0 3.924 c 0 0.342 -0.043 0.663 -0.127 0.963 c -0.078 0.294 -0.207 0.551 -0.387 0.773 c -0.18 0.222 -0.417 0.397 -0.711 0.523 c -0.288 0.126 -0.639 0.188 -1.053 0.188 c -0.414 0 -0.769 -0.061 -1.063 -0.188 c -0.288 -0.126 -0.521 -0.301 -0.701 -0.523 c -0.18 -0.222 -0.312 -0.479 -0.396 -0.773 c -0.078 -0.3 -0.117 -0.621 -0.117 -0.963 l 0 -3.924 z m 11.432 3.895 c 0.203 0 0.377 0.031 0.525 0.094 c 0.148 0.059 0.27 0.137 0.363 0.234 c 0.098 0.098 0.168 0.209 0.211 0.334 c 0.047 0.125 0.07 0.252 0.07 0.385 c 0 0.129 -0.02 0.248 -0.059 0.357 c -0.039 0.105 -0.09 0.203 -0.152 0.293 c -0.062 0.086 -0.133 0.162 -0.211 0.229 c -0.078 0.066 -0.154 0.121 -0.229 0.168 c 0.273 0.117 0.465 0.264 0.574 0.439 c 0.113 0.176 0.17 0.362 0.17 0.557 c 0 0.168 -0.031 0.321 -0.094 0.461 c -0.059 0.14 -0.143 0.262 -0.252 0.363 c -0.109 0.098 -0.242 0.174 -0.398 0.229 c -0.156 0.059 -0.328 0.088 -0.52 0.088 c -0.191 0 -0.365 -0.027 -0.521 -0.082 c -0.152 -0.055 -0.283 -0.131 -0.396 -0.229 c -0.109 -0.101 -0.195 -0.219 -0.258 -0.352 c -0.059 -0.137 -0.088 -0.283 -0.088 -0.443 c 0 -0.136 0.02 -0.26 0.059 -0.369 c 0.039 -0.113 0.09 -0.213 0.152 -0.299 c 0.066 -0.09 0.141 -0.168 0.223 -0.234 c 0.086 -0.07 0.174 -0.131 0.268 -0.182 c -0.238 -0.117 -0.399 -0.254 -0.484 -0.414 c -0.086 -0.16 -0.129 -0.334 -0.129 -0.521 c 0 -0.168 0.029 -0.319 0.088 -0.455 c 0.059 -0.136 0.139 -0.252 0.24 -0.346 c 0.105 -0.098 0.229 -0.172 0.373 -0.223 c 0.144 -0.055 0.303 -0.082 0.475 -0.082 z m 0 0.328 c -0.129 0 -0.242 0.02 -0.34 0.059 c -0.098 0.039 -0.18 0.094 -0.246 0.164 c -0.062 0.066 -0.111 0.145 -0.146 0.234 c -0.031 0.09 -0.045 0.182 -0.045 0.279 c 0 0.109 0.012 0.209 0.035 0.299 c 0.027 0.09 0.074 0.172 0.145 0.246 c 0.07 0.07 0.168 0.137 0.293 0.199 c 0.125 0.059 0.289 0.115 0.492 0.17 c 0.179 -0.101 0.32 -0.227 0.426 -0.375 c 0.105 -0.148 0.158 -0.334 0.158 -0.557 c 0 -0.09 -0.016 -0.176 -0.047 -0.262 c -0.027 -0.086 -0.072 -0.162 -0.135 -0.229 c -0.059 -0.07 -0.135 -0.125 -0.232 -0.164 c -0.098 -0.043 -0.217 -0.064 -0.357 -0.064 z m -0.234 1.848 c -0.199 0.094 -0.354 0.221 -0.463 0.381 c -0.109 0.156 -0.162 0.346 -0.162 0.568 c 0 0.109 0.018 0.209 0.053 0.303 c 0.035 0.094 0.086 0.176 0.156 0.246 c 0.074 0.07 0.164 0.127 0.27 0.17 c 0.109 0.039 0.237 0.059 0.381 0.059 c 0.144 0 0.27 -0.02 0.375 -0.059 c 0.109 -0.043 0.197 -0.1 0.268 -0.17 c 0.074 -0.07 0.129 -0.152 0.164 -0.246 c 0.035 -0.094 0.053 -0.194 0.053 -0.303 c 0 -0.168 -0.033 -0.305 -0.1 -0.41 c -0.062 -0.105 -0.147 -0.192 -0.252 -0.258 c -0.101 -0.066 -0.217 -0.119 -0.35 -0.158 c -0.129 -0.039 -0.26 -0.08 -0.393 -0.123 z" style="fill:#353535;fill-opacity:1"/>
</svg>
